src/topics/icons/sidekick.svg

<svg height="256" preserveAspectRatio="xMidYMid" viewBox="0 0 256 256" width="256" xmlns="http://www.w3.org/2000/svg"><path d="m88.9645227 86.1240855c2.0359978-1.876 4.1159956-3.652 6.2179933-5.365-9.7669894-17.655-14.9369839-36.527-17.1389815-54.521-8.6149907 5.641-17.0089816 12.131-25.0159729 19.51-3.5099962 3.234-6.8469926 6.571-10.0199892 9.991.7599992 23.082 7.7999916 49.8369995 18.8989796 67.1289995 6.0999934-13.152 15.1669836-25.7879995 27.0579707-36.7439995zm140.8834473-56.6639c-32.505964-35.28000002-85.993907-37.98400002-135.2218534-12.868 1.4429984 18.269 6.3749934 35.883 16.1179824 53.275 35.292962-20.929 75.143919-20.572 98.724893 5.021 28.61497 31.0559995 22.428976 87.4799995-16.880981 123.6999995-39.310958 36.221-94.3748983 40.407-122.9898673 9.351-14.8889839-16.16-19.6609788-38.677-15.2969835-61.663-11.8829872-15.301-22.6759755-46.7849995-26.5219713-71.6329995-35.05196214 50.2429995-37.915959 111.9359995-2.9659968 149.8679995 42.0449545 45.632 122.8448669 39.581 180.4708049-13.516 57.626938-53.097 66.608928-135.9029995 24.563973-181.5349995z" fill="#e57e41"/></svg>

<?xml version="1.0" encoding="UTF-8" standalone="no"?>
<svg width="256px" height="256px" viewBox="0 0 256 256" version="1.1" xmlns="http://www.w3.org/2000/svg" xmlns:xlink="http://www.w3.org/1999/xlink" preserveAspectRatio="xMidYMid">
    <g>
        <path d="M88.9645227,86.1240855 C91.0005205,84.2480855 93.0805183,82.4720855 95.182516,80.7590855 C85.4155266,63.1040855 80.2455321,44.2320855 78.0435345,26.2380855 C69.4285438,31.8790855 61.0345529,38.3690855 53.0275616,45.7480855 C49.5175654,48.9820855 46.180569,52.3190855 43.0075724,55.7390855 C43.7675716,78.8210855 50.807564,105.576085 61.906552,122.868085 C68.0065454,109.716085 77.0735356,97.0800855 88.9645227,86.1240855 Z M229.84797,29.4601855 C197.342006,-5.81981452 143.854063,-8.52381452 94.6261166,16.5921855 C96.069115,34.8611855 101.00111,52.4751855 110.744099,69.8671855 C146.037061,48.9381855 185.888018,49.2951855 209.468992,74.8881855 C238.083962,105.944185 231.897968,162.368185 192.588011,198.588185 C153.277053,234.809185 98.2131127,238.995185 69.5981437,207.939185 C54.7091598,191.779185 49.9371649,169.262185 54.3011602,146.276185 C42.418173,130.975185 31.6251847,99.4911855 27.7791889,74.6431855 C-7.27277324,124.886185 -10.1367701,186.579185 24.8131921,224.511185 C66.8581466,270.143185 147.658059,264.092185 205.283997,210.995185 C262.910935,157.898185 271.892925,75.0921855 229.84797,29.4601855 Z" fill="#E57E41"></path>
    </g>
</svg>
